public/assets/images/favicon.svg

<svg width="48" height="48" viewBox="0 0 48 48" fill="none" xmlns="http://www.w3.org/2000/svg">
<path d="M23.8167 18.8477C23.8167 18.8477 14.818 26.9431 18.9568 29.5578C18.9568 29.5578 16.1615 31.6303 14.1445 31.386C12.2186 31.1527 9.66063 28.4495 13.3997 24.5668C17.2257 20.5938 23.8167 18.8477 23.8167 18.8477Z" fill="#0FDAC2"/>
<path d="M9.20961 43.8799C8.92286 43.996 18.2431 40.2018 16.5144 32.1377C16.5144 32.1377 17.5451 30.3366 19.7039 30.5626C21.9703 30.7998 25.7176 34.1114 21.0009 38.7006C16.4129 43.1647 9.20961 43.8799 9.20961 43.8799Z" fill="#0FDAC2"/>
<path d="M41.0006 4.00003C41.0006 4.00003 35.4363 3.93047 27.3515 10.7132C27.3515 10.7132 25.1265 9.21641 23.0303 10.7814C20.9341 12.3465 20.1484 12.9332 20.1484 12.9332C21.5003 12.7617 22.873 12.8655 24.1838 13.2381L23.3103 14.4727C23.146 14.7049 23.0595 14.9832 23.0631 15.2677C23.0668 15.5522 23.1604 15.8282 23.3306 16.0561L23.8756 16.7861L24.4206 17.516C24.5908 17.7439 24.8288 17.9121 25.1005 17.9965C25.3722 18.0808 25.6636 18.0769 25.9329 17.9853L27.3648 17.4988C27.3496 18.8614 27.0591 20.2069 26.5106 21.4544C26.5106 21.4544 27.2963 20.8678 29.3924 19.3027C31.4886 17.7377 30.6857 15.179 30.6857 15.179C39.4862 9.35474 41.0006 4.00003 41.0006 4.00003ZM34.4304 10.888C34.1787 11.076 33.8768 11.1851 33.5631 11.2015C33.2493 11.218 32.9377 11.141 32.6677 10.9803C32.3977 10.8197 32.1814 10.5825 32.0461 10.2989C31.9109 10.0153 31.8627 9.69799 31.9078 9.38705C31.9529 9.0761 32.0892 8.78552 32.2995 8.55203C32.5098 8.31855 32.7845 8.15266 33.0891 8.07534C33.3936 7.99801 33.7142 8.01273 34.0104 8.11763C34.3066 8.22253 34.565 8.4129 34.753 8.66467C34.8778 8.83183 34.9684 9.02194 35.0198 9.22415C35.0711 9.42635 35.0821 9.63669 35.0522 9.84315C35.0222 10.0496 34.9519 10.2481 34.8452 10.4274C34.7386 10.6067 34.5976 10.7632 34.4304 10.888Z" fill="#643BFF"/>
<path d="M21.1965 40.0538C27.2429 35.6274 27.7436 30.7248 22.3903 29.6448C18.3566 28.8309 14.3064 29.0165 14.4361 27.3719C14.5866 25.4638 21.7865 20.2732 23.9917 18.7256C23.8151 18.6347 23.6609 18.5057 23.5402 18.3479L22.9895 17.6222L22.4388 16.8966C22.2927 16.7024 22.2022 16.4722 22.1769 16.2305C20.2394 17.4408 10.3359 23.8195 9.87378 28.0237C9.64803 30.0787 10.6598 31.1186 15.9864 32.1248C20.1019 32.902 22.0568 33.4587 21.5131 35.2049C20.4952 38.4741 9 43.9812 9 43.9812C9 43.9812 15.4643 44.2504 21.1965 40.0538Z" fill="#643BFF"/>
</svg>

<svg xmlns="http://www.w3.org/2000/svg" fill="none" viewBox="0 0 48 48"><path d="M23.817 18.848s-8.999 8.095-4.86 10.71c0 0-2.796 2.072-4.813 1.828-1.925-.233-4.483-2.936-.744-6.82 3.826-3.972 10.417-5.718 10.417-5.718ZM9.21 43.88c-.287.116 9.033-3.678 7.304-11.742 0 0 1.031-1.801 3.19-1.575C21.97 30.8 25.718 34.11 21 38.7c-4.587 4.465-11.79 5.18-11.79 5.18Z" fill="#0FDAC2"/><path d="M41 4s-5.564-.07-13.648 6.713c0 0-2.226-1.497-4.322.068l-2.882 2.152a10.107 10.107 0 0 1 4.036.305l-.874 1.235a1.347 1.347 0 0 0 .02 1.583l.546.73.545.73a1.347 1.347 0 0 0 1.512.47l1.432-.487a10.108 10.108 0 0 1-.854 3.955l2.881-2.151c2.097-1.565 1.294-4.124 1.294-4.124C39.486 9.355 41 4 41 4Zm-6.57 6.888a1.588 1.588 0 1 1-1.9-2.545 1.588 1.588 0 0 1 1.9 2.545ZM21.197 40.054c6.046-4.427 6.547-9.33 1.193-10.41-4.033-.813-8.084-.627-7.954-2.272.15-1.908 7.35-7.099 9.556-8.646a1.342 1.342 0 0 1-.452-.378l-.55-.726-.551-.725a1.34 1.34 0 0 1-.262-.666c-1.938 1.21-11.841 7.588-12.303 11.793-.226 2.055.786 3.095 6.112 4.1 4.116.778 6.07 1.335 5.527 3.08C20.495 38.475 9 43.982 9 43.982s6.464.27 12.197-3.927Z" fill="#643BFF"/></svg>
